assets/svg/shopping-cart.svg

<?xml version="1.0" encoding="UTF-8"?>
<svg width="1000px" height="1000px" viewBox="0 0 1000 1000" version="1.1" xmlns="http://www.w3.org/2000/svg" xmlns:xlink="http://www.w3.org/1999/xlink">
    <!-- Generator: sketchtool 52.4 (67378) - http://www.bohemiancoding.com/sketch -->
    <title>shopping-cart</title>
    <desc>Created with sketchtool.</desc>
    <g id="新版图标" stroke="none" stroke-width="1" fill="none" fill-rule="evenodd">
        <g id="shopping-cart" fill="#323233">
            <g id="圆角-购物车1-面">
                <g id="圆角-编辑资料-面" transform="translate(0.000000, 55.555556)">
                    <g id="Group-2">
                        <path d="M219.637809,166.666667 L943.108516,166.666667 C943.660801,166.666667 944.108516,167.114382 944.108516,167.666667 C944.108516,167.762049 944.09487,167.856941 944.067992,167.948458 L830.421729,554.904971 C830.306359,555.297799 829.963186,555.58062 829.555553,555.618818 L265.671838,608.459347 L269.171367,642.044642 C270.645783,656.194741 282.572858,666.943609 296.799566,666.943609 L831.647802,666.943609 C846.989045,666.943609 859.425579,679.380144 859.425579,694.721387 C859.425579,710.06263 846.989045,722.499165 831.647802,722.499165 L296.799566,722.499165 C254.119443,722.499165 218.338216,690.252561 213.914969,647.802263 L160.567195,135.818924 C159.092779,121.668825 147.165704,110.919957 132.938996,110.919957 L55.5555556,110.919957 C40.2143125,110.919957 27.7777778,98.4834219 27.7777778,83.1421789 C27.7777778,67.8009358 40.2143125,55.3644011 55.5555556,55.3644011 L132.938996,55.3644011 C175.619119,55.3644011 211.400346,87.6110054 215.823593,130.061303 L219.637809,166.666667 Z" id="Combined-Shape"></path>
                        <circle id="Oval" cx="333.333333" cy="833.333333" r="55.5555556"></circle>
                        <circle id="Oval-Copy" cx="722.222222" cy="833.333333" r="55.5555556"></circle>
                    </g>
                </g>
            </g>
        </g>
    </g>
</svg>

<svg width="1000" height="1000" xmlns="http://www.w3.org/2000/svg"><g transform="translate(0 55.556)" fill="#323233" fill-rule="evenodd"><path d="M219.638 166.667h723.47a1 1 0 0 1 .96 1.281L830.422 554.905a1 1 0 0 1-.866.714l-563.884 52.84 3.5 33.586c1.474 14.15 13.4 24.899 27.628 24.899h534.848c15.341 0 27.778 12.436 27.778 27.777 0 15.342-12.437 27.778-27.778 27.778H296.8c-42.68 0-78.462-32.246-82.885-74.697L160.567 135.82c-1.474-14.15-13.401-24.899-27.628-24.899H55.556c-15.342 0-27.778-12.437-27.778-27.778s12.436-27.778 27.778-27.778h77.383c42.68 0 78.461 32.247 82.885 74.697l3.814 36.606z"/><circle cx="333.333" cy="833.333" r="55.556"/><circle cx="722.222" cy="833.333" r="55.556"/></g></svg>
